svg/Filled/volume-muted_filled.svg

<svg viewBox="0 0 24 24" xmlns="http://www.w3.org/2000/svg" width="24" height="24"><path d="M10.56 5.7c.48.08.91.34 1.21.73l.1.13c.18.31.24.66.26.94q.04.5.03 1.22v6.56q0 .72-.03 1.22c-.02.28-.08.63-.27.94l-.09.13c-.3.39-.73.65-1.2.72l-.21.02c-.44.03-.8-.15-1.09-.3q-.44-.26-1.02-.67l-1.92-1.32c-.4-.27-.6-.41-.76-.5l-.15-.08a3 3 0 0 0-.66-.24l-.24-.04a8 8 0 0 0-1.07-.03l-.33-.01q-.13 0-.32-.06l-.12-.04a1.4 1.4 0 0 1-.71-.64l-.06-.13a1 1 0 0 1-.1-.44v-3.62q0-.17.1-.44l.06-.13q.24-.45.7-.64l.13-.05q.19-.04.32-.05h.33c.63 0 .86 0 1.07-.04l.24-.04q.35-.09.66-.24l.15-.08c.16-.1.37-.23.76-.5l1.92-1.32.55-.37.47-.3a2 2 0 0 1 1.09-.3zm3.99 2.57a1 1 0 0 1 1.42 0l2.31 2.32 2.3-2.31A1 1 0 0 1 22 9.69L19.7 12l2.3 2.3.07.08a1 1 0 0 1-1.4 1.41l-.08-.07-2.31-2.3-2.31 2.3-.08.07a1 1 0 0 1-1.4-1.4l.06-.08L16.87 12l-2.32-2.31a1 1 0 0 1 0-1.42"/></svg>

<svg viewBox="0 0 24 24" xmlns="http://www.w3.org/2000/svg" width="24" height="24"><path d="M10.56 5.7C11.04 5.78 11.47 6.04 11.77 6.43L11.87 6.56C12.05 6.87 12.11 7.22 12.13 7.5Q12.17 8 12.16 8.72L12.16 15.28Q12.16 16 12.13 16.5C12.11 16.78 12.05 17.13 11.86 17.44L11.77 17.57C11.47 17.96 11.04 18.22 10.57 18.29L10.36 18.31C9.92 18.34 9.56 18.16 9.27 18.01Q8.83 17.75 8.25 17.34L6.33 16.02C5.93 15.75 5.73 15.61 5.57 15.52L5.42 15.44A3 3 0 0 0 4.76 15.2L4.52 15.16A8 8 0 0 0 3.45 15.13L3.12 15.12Q2.99 15.12 2.8 15.06L2.68 15.02A1.4 1.4 0 0 1 1.97 14.38L1.91 14.25A1 1 0 0 1 1.81 13.81L1.81 10.19Q1.81 10.02 1.91 9.75L1.97 9.62Q2.21 9.17 2.67 8.98L2.8 8.93Q2.99 8.89 3.12 8.88L3.45 8.88C4.08 8.88 4.31 8.88 4.52 8.84L4.76 8.8Q5.11 8.71 5.42 8.56L5.57 8.48C5.73 8.38 5.94 8.25 6.33 7.98L9.27 5.99A2 2 0 0 1 10.36 5.69ZM14.55 8.27A1 1 0 0 1 15.97 8.27L18.28 10.59L20.58 8.28A1 1 0 0 1 22 9.69L19.7 12L22.07 14.38A1 1 0 0 1 20.67 15.79L18.28 13.42L15.89 15.79A1 1 0 0 1 14.49 14.39L16.87 12L14.55 9.69A1 1 0 0 1 14.55 8.27"/></svg>
